X:1
T:Cello Sonata in E Minor, RV 40
T:Cello Sonata in E Minor, RV 40
T:Antonio Vivaldi
C:Antonio Vivaldi
L:1/8
Q:1/4=30
M:4/4
K:G
V:1 bass nm="Violoncelle" snm="Vlc"
V:1
 E, | EEEE (TE^D) z B, | FFFF (TFE)(GB,) | (TB,^A,) z E D^C/B,/ A,B,/C/ | E,3 E ^D^EFB, | %5
 (T^C3 B,) B,3 ::!mf! F, | B,B,B,B, (TB,^A,) z F, | ^CCCC (TCB,)(FB,) | %9
 (TB,A,)(EA,) A,(^G,/A,/ B,/C/D) | (TDC)(!tenuto!=F!tenuto!F) (TF(E E/))(F/D/C/) | %11
 (B,/A,/4G,/4)C/=F/ (TD>C) C2 z E | ^DD DE/F/ (GE) (C2 | C/)(A/F/^D/) (B,2 B,/)(G/E/^C/) (A,2 | %14
 A,/)(F/^D/B,/) (G2 G)F/E/ (TD>E) | (E4 E/)(E/F/G/) FE | (^D/^C/)B, z!f! A, G,B,/E/ (TF,>E,) | %17
 E,/(E/F/)^C/ (T^D>E) !fermata!E4 :|[Q:3/8=70]!f! B,, | %19
 E,/G,/F,/E,/ B,/(G,/F,/E,/) B,,C (B,/A,/)(G,/F,/) | %20
 E,/G,/F,/E,/ B,/(G,/F,/E,/) B,,C (B,/A,/)(G,/F,/) | G,/F,/E, z B, ^G,,DE,D | CE,A,,C F,,CD,C | %23
 B,D,G,,B, F,,A,^D,A, | G,B,,E,,G, C,,=F,A,,F, | %25
 ^D,/C/(B, B,/)C/(B, B,/)(A,/G,/F,/) (B,/A,/)(G,/F,/) | G,E,B,,^D, E,,2 z B,, | %27
 E,/G,/F,/E,/ B,/(G,/F,/E,/) B,,C (B,/A,/)(G,/F,/) | %28
 E,/G,/F,/E,/ B,/(G,/F,/E,/) B,,C (B,/A,/)(G,/F,/) | G,E, z G, A,/F,/D,/F,/ A,/(C/B,/A,/) | %30
 B,/G,/G,,/G,/ B,/(D/C/B,/) A,/F,/D,/F,/ A,/(C/B,/A,/) | B,/G,/G,,/G,/ B,/(D/C/B,/) (B,A,) z D, | %32
 E, (C2 G,) F, (D2 B,) | G, (E2 C) ((A, F,2) G,) | (D F,2) G, (E F,2) G, | %35
 CB,/A,/ B,A,/G,/ D(F,G,C) | B,A,/G,/ (C,D,) G,,3 :| %37

